X: 9043
T: Da Farder Ben Da Welcomer
R: polka
M: 2/4
K: Dmajor
E|A/B/d A/B/A/F/|AA2 A/F/|Dd A/B/A/F/|E =C2 E|
A/B/d A/B/A/F/|DA/c/ d>A|BA/B/ d/B/A/F/|E =C2:|
A|dd e/f/g/e/|a/f/e/d/ cA|dd e/f/g/e/|a/f/e/f/ dA|dd e/f/g/e/|
a/f/e/d/ cA|dd e/f/g/e/|a/f/e/d/ e/f/g/e/|a/f/e/d/ e/f/g/e/|a/f/e/f/ d:|
A|B/A/B/c/ d/B/A/F/|E =C2E|A/B/A/F/ A/B/A/F/|A A2 A/F/|A/B/A/F/ A/B/A/F/|
E =C2E|A/B/A/F/ A/B/A/F/|DA/c/ d>A|BA/B/ d/B/A/F/|E =C2||

